src/icons/iota/tutorials.svg

<svg width="33" height="33" viewBox="0 0 33 33" xmlns="http://www.w3.org/2000/svg">
<path class="icon-color-primary" d="M22.0116 19.2422C21.9213 19.2421 21.8319 19.2599 21.7484 19.2944C21.665 19.3289 21.5892 19.3795 21.5253 19.4434L14.078 26.8926L10.5018 23.3203C10.4379 23.2565 10.362 23.206 10.2784 23.1716C10.1949 23.1372 10.1054 23.1196 10.0151 23.1198C9.92478 23.1199 9.83537 23.1379 9.75199 23.1727C9.66862 23.2074 9.59291 23.2583 9.52919 23.3223C9.4653 23.3862 9.41461 23.462 9.38002 23.5454C9.34544 23.6289 9.32764 23.7183 9.32764 23.8086C9.32764 23.899 9.34544 23.9884 9.38002 24.0719C9.41461 24.1553 9.4653 24.2311 9.52919 24.295L14.08 28.836L22.4979 20.4161C22.5618 20.3522 22.6125 20.2764 22.6471 20.193C22.6817 20.1095 22.6995 20.0201 22.6995 19.9297C22.6995 19.8394 22.6817 19.75 22.6471 19.6665C22.6125 19.5831 22.5618 19.5073 22.4979 19.4434C22.4341 19.3796 22.3582 19.329 22.2748 19.2944C22.1913 19.2599 22.1019 19.2422 22.0116 19.2422V19.2422Z"/>
<path class="icon-color-primary" d="M17.2383 4.42383C16.8854 4.42383 16.5325 4.55535 16.2676 4.82031L4.14064 16.9551C3.61067 17.485 3.61067 18.3666 4.14064 18.8965L7.16603 21.9219L8.13868 20.9492L5.11525 17.9258L17.2402 5.79492L17.2382 5.79297H17.2402V5.79492L26.2031 14.7578L23.8379 17.1211L24.8106 18.0918L27.1738 15.7266C27.7039 15.1967 27.7057 14.315 27.1758 13.7852L18.209 4.82031C17.944 4.55543 17.5912 4.42382 17.2383 4.42383Z"/>
<path class="icon-color-primary" d="M16.5801 10.623L15.6074 11.5957L20.3438 16.332L21.3164 15.3594L16.5801 10.623Z"/>
<path class="icon-color-primary" d="M13.7129 13.4902L12.7402 14.4629L17.4785 19.1934L18.4492 18.2207L13.7129 13.4902Z"/>
</svg>

<svg xmlns="http://www.w3.org/2000/svg" viewBox="0 0 33 33">
  <path class="icon-color-primary" d="M22.012 19.242a.687.687 0 0 0-.487.201l-7.447 7.45-3.576-3.573a.685.685 0 0 0-.973.002.689.689 0 0 0 0 .973l4.551 4.541 8.418-8.42a.689.689 0 0 0-.486-1.174ZM17.238 4.424c-.353 0-.706.131-.97.396L4.14 16.955c-.53.53-.53 1.412 0 1.942l3.025 3.025.973-.973-3.024-3.023L17.24 5.795l-.002-.002h.002v.002l8.963 8.963-2.365 2.363.973.97 2.363-2.364c.53-.53.532-1.412.002-1.942L18.209 4.82a1.368 1.368 0 0 0-.97-.396Z"/>
  <path class="icon-color-primary" d="m16.58 10.623-.973.973 4.737 4.736.972-.973-4.736-4.736Zm-2.867 2.867-.973.973 4.739 4.73.97-.972-4.736-4.73Z"/>
</svg>
